src/16/actions/insert-table-of-contents.svg

<svg xmlns="http://www.w3.org/2000/svg" viewBox="0 0 16 16"><path d="M2 3v1h6V3H2zm0 6v1h4V9H2z" fill="currentColor" color="#5d656b"/><path d="M11 3v1h1v2h-1v1h3V6h-1V4h1V3h-3zM5 5v1h1V5H5zm2 0v1h1V5H7zm2 0v1h1V5H9zm0 4v1h1v2H9v1h5v-1h-1v-2h1V9H9zm2 1h1v2h-1v-2zm-8 1v1h1v-1H3zm2 0v1h1v-1H5zm2 0v1h1v-1H7z" fill="currentColor" color="#3daee9"/></svg>

<svg xmlns="http://www.w3.org/2000/svg" viewBox="0 0 16 16">
  <defs id="defs3051">
    <style type="text/css" id="current-color-scheme">
      .ColorScheme-Text {
        color:#5d656b;
      }
      .ColorScheme-Highlight {
        color:#3daee9;
      }
      </style>
  </defs>
  <path 
        style="fill:currentColor;fill-opacity:1;stroke:none"
        d="M 2 3 L 2 4 L 8 4 L 8 3 L 2 3 z M 2 9 L 2 10 L 6 10 L 6 9 L 2 9 z "
        class="ColorScheme-Text"
        />
  <path 
        style="fill:currentColor;fill-opacity:1;stroke:none"
        d="M 11 3 L 11 4 L 12 4 L 12 6 L 11 6 L 11 7 L 14 7 L 14 6 L 13 6 L 13 4 L 14 4 L 14 3 L 11 3 z M 5 5 L 5 6 L 6 6 L 6 5 L 5 5 z M 7 5 L 7 6 L 8 6 L 8 5 L 7 5 z M 9 5 L 9 6 L 10 6 L 10 5 L 9 5 z M 9 9 L 9 10 L 10 10 L 10 12 L 9 12 L 9 13 L 14 13 L 14 12 L 13 12 L 13 10 L 14 10 L 14 9 L 11 9 L 9 9 z M 11 10 L 12 10 L 12 12 L 11 12 L 11 10 z M 3 11 L 3 12 L 4 12 L 4 11 L 3 11 z M 5 11 L 5 12 L 6 12 L 6 11 L 5 11 z M 7 11 L 7 12 L 8 12 L 8 11 L 7 11 z "
        class="ColorScheme-Highlight"
        />
</svg>
